X:66
T:Betty Thorowgood's delight
M:C
L:1/8
B:Thompson's Compleat Collection of 200 Favourite Country Dances, vol. 2 (London, 1765)
Z:Transcribed and edited by Flynn Titford-Mock, 2007
Z:abc's:AK/Fiddler's Companion
K:G
G>AB>c d>B g2 | d>ed>B c>dc>A | G>AB>c d>B g2 | faf^c d2D2 :|
|: d>ed>B b>Bd>B | c>dc>A a>Ac>A | B>dB>G gdBG | BGDF G2 [G,2G2] :|

